public/imgs/svg/marker.svg

<svg width="16" height="16" viewBox="0 0 16 16" fill="none" xmlns="http://www.w3.org/2000/svg">
<g id="#031">
<path id="&#231;&#159;&#169;&#229;&#189;&#162;" fill-rule="evenodd" clip-rule="evenodd" d="M4.66666 8.00002C4.66666 8.51822 5.23198 8.83829 5.67633 8.57168L7 7.77748L8.32367 8.57168C8.76802 8.83829 9.33333 8.51822 9.33333 8.00002V1.33335C9.33333 0.965164 9.03485 0.666687 8.66666 0.666687H5.33333C4.96514 0.666687 4.66666 0.965164 4.66666 1.33335V8.00002ZM6.657 6.42836L6 6.82256V2.00002H8V6.82256L7.34299 6.42836C7.13187 6.30169 6.86812 6.30169 6.657 6.42836Z" fill="#E66CFF" fill-opacity="0.98"/>
<path id="&#232;&#183;&#175;&#229;&#190;&#132;" d="M3.33333 2.00002H10.6667C11.7712 2.00002 12.6667 2.89545 12.6667 4.00002V12C12.6667 13.1046 11.7712 14 10.6667 14H4C3.63181 14 3.33333 14.2985 3.33333 14.6667C3.33333 15.0349 3.63181 15.3334 4 15.3334H10.6667C12.5076 15.3334 14 13.841 14 12V4.00002C14 2.15907 12.5076 0.666687 10.6667 0.666687H2.66667C2.29848 0.666687 2 0.965164 2 1.33335V12C2 12.3682 2.29848 12.6667 2.66667 12.6667C3.03486 12.6667 3.33333 12.3682 3.33333 12V2.00002Z" fill="#9013FE"/>
<circle id="&#230;&#164;&#173;&#229;&#156;&#134;&#229;&#189;&#162;" cx="10.6667" cy="12" r="0.666667" fill="#FF9F00"/>
</g>
</svg>

<svg width="16" height="16" fill="none" xmlns="http://www.w3.org/2000/svg"><path fill-rule="evenodd" clip-rule="evenodd" d="M4.667 8c0 .518.565.838 1.01.572L7 7.777l1.324.795A.667.667 0 0 0 9.334 8V1.333a.667.667 0 0 0-.667-.666H5.333a.667.667 0 0 0-.666.666V8zm1.99-1.572L6 6.823V2h2v4.823l-.657-.395a.667.667 0 0 0-.686 0z" fill="#E66CFF" fill-opacity=".98"/><path d="M3.333 2h7.334a2 2 0 0 1 2 2v8a2 2 0 0 1-2 2H4a.667.667 0 0 0 0 1.333h6.667A3.333 3.333 0 0 0 14 12V4A3.333 3.333 0 0 0 10.667.667h-8A.667.667 0 0 0 2 1.333V12a.667.667 0 1 0 1.333 0V2z" fill="#9013FE"/><circle cx="10.667" cy="12" r=".667" fill="#FF9F00"/></svg>
